symbols/web/airline_seat_legroom_reduced/materialsymbolsoutlined/airline_seat_legroom_reduced_wght100fill1_20px.svg

<svg xmlns="http://www.w3.org/2000/svg" height="20" width="20"><path d="M11.792 16.667v-1.084l1.166-3.375H5.875q-.479 0-.802-.323-.323-.323-.323-.802V3.042h3.917v6.083h5.25q.437 0 .76.302t.365.74l-1.834 5.416h1.5q.292 0 .48.125.187.125.187.417t-.167.417q-.166.125-.458.125ZM9.75 13.625H4.667q-.542 0-.938-.396-.396-.396-.396-.937v-9.25H4v9.25q0 .25.208.458.209.208.459.208H9.75Z"/></svg>

<svg xmlns="http://www.w3.org/2000/svg" height="20" width="20"><path d="M11.792 16.667V15.583L12.958 12.208H5.875Q5.396 12.208 5.073 11.885Q4.75 11.562 4.75 11.083V3.042H8.667V9.125H13.917Q14.354 9.125 14.677 9.427Q15 9.729 15.042 10.167L13.208 15.583H14.708Q15 15.583 15.188 15.708Q15.375 15.833 15.375 16.125Q15.375 16.417 15.208 16.542Q15.042 16.667 14.75 16.667ZM9.75 13.625H4.667Q4.125 13.625 3.729 13.229Q3.333 12.833 3.333 12.292V3.042H4V12.292Q4 12.542 4.208 12.75Q4.417 12.958 4.667 12.958H9.75Z"/></svg>
